img/date_icon.svg

<svg height="20" viewBox="0 0 19 20" width="19" xmlns="http://www.w3.org/2000/svg"><path d="m8.444 14.174-2.936-2.173-.534.723 3.591 2.658 5.345-5.91-.666-.603z"/><path d="m13.7078652 2.92134831v-2.92134831h-.8988764v2.92134831h-6.74157307v-2.92134831h-.8988764v2.92134831h-5.16853933v17.07865169h18.8764045v-17.07865169zm4.2696629 16.17977529h-17.0786517v-15.28089888h4.26966293v2.13483146h.8988764v-2.13483146h6.74157307v2.13483146h.8988764v-2.13483146h4.2696629z"/></svg>

<svg xmlns="http://www.w3.org/2000/svg" width="19" height="20" viewBox="0 0 19 20">
  <polygon points="8.444 14.174 5.508 12.001 4.974 12.724 8.565 15.382 13.91 9.472 13.244 8.869"/>
  <path d="M13.7078652,2.92134831 L13.7078652,0 L12.8089888,0 L12.8089888,2.92134831 L6.06741573,2.92134831 L6.06741573,0 L5.16853933,0 L5.16853933,2.92134831 L0,2.92134831 L0,20 L18.8764045,20 L18.8764045,2.92134831 L13.7078652,2.92134831 Z M17.9775281,19.1011236 L0.898876404,19.1011236 L0.898876404,3.82022472 L5.16853933,3.82022472 L5.16853933,5.95505618 L6.06741573,5.95505618 L6.06741573,3.82022472 L12.8089888,3.82022472 L12.8089888,5.95505618 L13.7078652,5.95505618 L13.7078652,3.82022472 L17.9775281,3.82022472 L17.9775281,19.1011236 Z"/>
</svg>
